icons/megaphone-24.svg

<svg width="24" height="24" viewBox="0 0 24 24" fill="none" xmlns="http://www.w3.org/2000/svg">
<path fill-rule="evenodd" clip-rule="evenodd" d="M22 1.75002C22 1.47444 21.8489 1.22106 21.6064 1.09011C21.3642 0.959306 21.0691 0.972213 20.8387 1.12283C20.792 1.15211 20.7446 1.18046 20.6969 1.20808C20.5913 1.26909 20.4278 1.35946 20.2071 1.46954C19.7659 1.68971 19.0964 1.98866 18.2054 2.28941C16.4244 2.8906 13.7554 3.50002 10.25 3.50002H9.7548L9.75 3.5H6.5C3.46243 3.5 1 5.96243 1 9C1 11.5176 2.6915 13.64 5 14.293V14.75C5 17.8113 5.68398 20.2548 6.06118 21.3712C6.30061 22.0798 6.96462 22.5 7.66124 22.5H9.67422C10.968 22.5 11.7734 21.1784 11.4059 20.0465C10.9945 18.7795 10.5 16.7792 10.5 14.5C10.5 14.4701 10.4983 14.4407 10.4949 14.4118C13.8766 14.4403 16.4602 15.0559 18.1978 15.6634C19.0879 15.9745 19.7568 16.2839 20.1977 16.5117C20.2815 16.5551 20.3691 16.6077 20.4594 16.6619C20.8164 16.8764 21.2163 17.1166 21.601 16.9128C21.8465 16.7828 22 16.5278 22 16.25V1.75002ZM10.5 12.9118C14.0638 12.9409 16.8127 13.5901 18.6928 14.2474C19.4304 14.5053 20.0339 14.7642 20.5 14.9872V2.99271C20.033 3.20875 19.427 3.46022 18.6852 3.71062C16.8068 4.34467 14.0605 4.97086 10.5 4.99903V12.9118ZM6.5 14.75V14.5H9C9 16.9857 9.53723 19.1484 9.97923 20.5098C10.0146 20.6187 9.99563 20.7471 9.92328 20.8533C9.85291 20.9566 9.76098 21 9.67422 21H7.66124C7.55594 21 7.49953 20.9421 7.48225 20.891C7.13816 19.8726 6.5 17.5974 6.5 14.75ZM6.5 5H9V13H6.5C4.29086 13 2.5 11.2091 2.5 9C2.5 6.79086 4.29086 5 6.5 5Z" fill="#24292E"/>
</svg>

<svg xmlns="http://www.w3.org/2000/svg" width="24" height="24" viewBox="0 0 24 24"><path fill-rule="evenodd" d="M22 1.75a.75.75 0 00-1.161-.627c-.047.03-.094.057-.142.085a9.15 9.15 0 01-.49.262c-.441.22-1.11.519-2.002.82-1.78.6-4.45 1.21-7.955 1.21H6.5A5.5 5.5 0 005 14.293v.457c0 3.061.684 5.505 1.061 6.621.24.709.904 1.129 1.6 1.129h2.013c1.294 0 2.1-1.322 1.732-2.453-.412-1.268-.906-3.268-.906-5.547 0-.03-.002-.06-.005-.088 3.382.028 5.965.644 7.703 1.251.89.312 1.559.62 2 .849.084.043.171.096.261.15.357.214.757.455 1.142.25A.75.75 0 0022 16.25V1.75zM10.5 12.912c3.564.029 6.313.678 8.193 1.335.737.258 1.34.517 1.807.74V2.993c-.467.216-1.073.467-1.815.718-1.878.634-4.624 1.26-8.185 1.288v7.913zm-4 1.838v-.25H9c0 2.486.537 4.648.98 6.01a.398.398 0 01-.057.343c-.07.104-.162.147-.249.147H7.661c-.105 0-.161-.058-.179-.109-.344-1.018-.982-3.294-.982-6.141zM6.5 5H9v8H6.5a4 4 0 010-8z"/></svg>
